Gurmukhi/0A68.svg

<svg enable-background="new 0 0 336 592" viewBox="0 0 336 592" xmlns="http://www.w3.org/2000/svg"><path d="m232.300293 241.933258c7.965713 26.220764 2.387207 58.874542-35.014771 76.581329-.390792 1.465149.835053 2.040772 1.633957 2.778473 19.151337 17.684662 31.184494 39.601532 38.245194 64.444641 1.744003 6.136353-.261536 8.033783-6.504212 6.4292-6.441345-1.655671-12.830032-3.536896-19.314666-4.99524-3.663254-.823822-4.974823-2.912994-5.748505-6.403534-3.984222-17.975006-11.630615-34.260009-22.87088-48.906982-3.842621-5.007233-7.804764-6.782074-14.403656-5.288147-11.792328 2.669617-23.808121 2.305359-35.544266-1.240265-3.372787-1.018982-6.528908-2.471557-9.215889-4.825531-9.361732-8.201599-7.737655-21.404785 3.525322-26.690735 11.227738-5.269439 22.730377-3.71466 34.149933-.464294 2.555405.727356 5.29248 1.355743 7.470291 2.764801 5.56102 3.597931 10.590653 2.110443 15.958313-.455505 11.280502-5.392426 20.953201-12.479065 26.101318-24.287598 8.837189-20.270294-2.143295-42.095734-24.095184-48.162628-18.425308-5.09224-36.285049-1.560776-53.921371 3.917236-11.456192 3.558426-11.394272 3.758209-15.097687-7.724838-.051033-.15828-.075607-.325119-.126854-.483322-3.984039-12.300522-4.091805-12.618912 8.086533-16.736435 22.0886-7.468247 44.455619-10.0831 66.918785-1.494706 19.492248 7.45253 32.853607 21.013978 39.768295 41.24408z"/></svg>

<svg version="1.1" id="Layer_1" xmlns="http://www.w3.org/2000/svg" xmlns:xlink="http://www.w3.org/1999/xlink" x="0px" y="0px"
	 width="100%" viewBox="0 0 336 592" enable-background="new 0 0 336 592" xml:space="preserve">
<path fill="#000000" opacity="1.000000" stroke="none" 
	d="
M232.300293,241.933258 
	C240.266006,268.154022 234.687500,300.807800 197.285522,318.514587 
	C196.894730,319.979736 198.120575,320.555359 198.919479,321.293060 
	C218.070816,338.977722 230.103973,360.894592 237.164673,385.737701 
	C238.908676,391.874054 236.903137,393.771484 230.660461,392.166901 
	C224.219116,390.511230 217.830429,388.630005 211.345795,387.171661 
	C207.682541,386.347839 206.370972,384.258667 205.597290,380.768127 
	C201.613068,362.793121 193.966675,346.508118 182.726410,331.861145 
	C178.883789,326.853912 174.921646,325.079071 168.322754,326.572998 
	C156.530426,329.242615 144.514633,328.878357 132.778488,325.332733 
	C129.405701,324.313751 126.249580,322.861176 123.562599,320.507202 
	C114.200867,312.305603 115.824944,299.102417 127.087921,293.816467 
	C138.315659,288.547028 149.818298,290.101807 161.237854,293.352173 
	C163.793259,294.079529 166.530334,294.707916 168.708145,296.116974 
	C174.269165,299.714905 179.298798,298.227417 184.666458,295.661469 
	C195.946960,290.269043 205.619659,283.182404 210.767776,271.373871 
	C219.604965,251.103577 208.624481,229.278137 186.672592,223.211243 
	C168.247284,218.119003 150.387543,221.650467 132.751221,227.128479 
	C121.295029,230.686905 121.356949,230.886688 117.653534,219.403641 
	C117.602501,219.245361 117.577927,219.078522 117.526680,218.920319 
	C113.542641,206.619797 113.434875,206.301407 125.613213,202.183884 
	C147.701813,194.715637 170.068832,192.100784 192.531998,200.689178 
	C212.024246,208.141708 225.385605,221.703156 232.300293,241.933258 
z"/>
</svg>
